X:10
T:When the Saints Go Marching In
M:4/4
L:1/4
Q:1/4=120
K:C
C E F G|G2 E2 F2|C E F G|G2 E4|
C E F G|E2 C2 E2 D2|C C E D|C4||
